P3
8 8
255
230 70 20 230 70 20 255 220 80 255 220 80 230 70 20 230 70 20 255 220 80 255 220 80
230 70 20 230 70 20 255 220 80 255 220 80 230 70 20 230 70 20 255 220 80 255 220 80
35 12 5 35 12 5 30 100 220 30 100 220 35 12 5 35 12 5 30 100 220 30 100 220
35 12 5 35 12 5 30 100 220 30 100 220 35 12 5 35 12 5 30 100 220 30 100 220
230 70 20 230 70 20 255 220 80 255 220 80 230 70 20 230 70 20 255 220 80 255 220 80
230 70 20 230 70 20 255 220 80 255 220 80 230 70 20 230 70 20 255 220 80 255 220 80
35 12 5 35 12 5 30 100 220 30 100 220 35 12 5 35 12 5 30 100 220 30 100 220
35 12 5 35 12 5 30 100 220 30 100 220 35 12 5 35 12 5 30 100 220 30 100 220
