P3
8 8
255
26 128 204 26 128 204 230 128 204 230 128 204 26 128 204 26 128 204 230 128 204 230 128 204
26 128 204 26 128 204 230 128 204 230 128 204 26 128 204 26 128 204 230 128 204 230 128 204
230 128 204 230 128 204 26 128 204 26 128 204 230 128 204 230 128 204 26 128 204 26 128 204
230 128 204 230 128 204 26 128 204 26 128 204 230 128 204 230 128 204 26 128 204 26 128 204
26 128 204 26 128 204 230 128 204 230 128 204 26 128 204 26 128 204 230 128 204 230 128 204
26 128 204 26 128 204 230 128 204 230 128 204 26 128 204 26 128 204 230 128 204 230 128 204
230 128 204 230 128 204 26 128 204 26 128 204 230 128 204 230 128 204 26 128 204 26 128 204
230 128 204 230 128 204 26 128 204 26 128 204 230 128 204 230 128 204 26 128 204 26 128 204
